img/svgicons/balance.svg

<svg width="18" height="18" viewBox="0 0 18 18" fill="none" xmlns="http://www.w3.org/2000/svg">
<path d="M16.9232 16.1065C16.793 15.6621 14.6732 7.72638 14.3848 6.64644C14.0976 5.56702 13.3466 5.27838 12.5007 5.27838C12.209 5.27838 11.084 5.27838 9.7431 5.27838V4.28109C14.872 3.80376 16.2399 0 16.2399 0H1.41987C1.41987 0 2.56685 4.01798 8.05123 4.30307V5.27782C6.80345 5.27782 5.77595 5.27782 5.49913 5.27782C4.65317 5.27782 3.90281 5.56645 3.61469 6.64592C3.32681 7.72586 1.20726 15.6615 1.07682 16.106C0.914227 16.663 0.964768 17.3903 2.09823 17.3903C2.22323 17.3903 2.50667 17.3903 2.90764 17.3903V18H14.9533V17.3908C15.4235 17.3908 15.7624 17.3908 15.9004 17.3908C17.0353 17.3908 17.0858 16.6635 16.9232 16.1065ZM9.00017 6.30887C11.7772 6.30887 14.0272 8.55778 14.0272 11.3346C14.0272 14.1113 11.7772 16.3608 9.00017 16.3608C6.22419 16.3608 3.97415 14.1114 3.97415 11.3346C3.97415 8.55773 6.22415 6.30887 9.00017 6.30887Z" fill="#337D5A"/>
<path d="M6.11459 9.12252L5.59878 8.75531L5.44635 8.96901L5.95474 9.3296C6.00197 9.25703 6.06045 9.19226 6.11459 9.12252Z" fill="#337D5A"/>
<path d="M7.53315 7.99638L7.25193 7.42786L7.0163 7.54487L7.30299 8.12195C7.3802 8.08096 7.45325 8.03265 7.53315 7.99638Z" fill="#337D5A"/>
<path d="M5.34997 11.3346C5.34997 11.3049 5.35848 11.2781 5.35957 11.249H4.7196V11.511H5.36808C5.3659 11.4511 5.34997 11.3951 5.34997 11.3346Z" fill="#337D5A"/>
<path d="M12.9445 9.41088L12.8187 9.18176L12.1612 9.5416C12.203 9.6163 12.2475 9.69322 12.2859 9.77067L12.9445 9.41088Z" fill="#337D5A"/>
<path d="M11.418 7.72094L11.1927 7.58582L10.8285 8.19226C10.9038 8.23675 10.9845 8.27216 11.0581 8.32109L11.418 7.72094Z" fill="#337D5A"/>
<path d="M9.19651 7.70474V7.03125H8.9342V7.69098C8.95619 7.69098 8.97761 7.68493 8.99959 7.68493C9.06767 7.68493 9.13003 7.70114 9.19651 7.70474Z" fill="#337D5A"/>
<path d="M11.1158 15.216L10.7654 14.5096C10.6896 14.553 10.6144 14.5997 10.5352 14.636L10.8796 15.3325L11.1158 15.216Z" fill="#337D5A"/>
<path d="M12.6858 13.7911L12.0469 13.3374C11.9997 13.411 11.9403 13.4758 11.8876 13.5445L12.5331 14.0043L12.6858 13.7911Z" fill="#337D5A"/>
<path d="M12.6507 11.3346C12.6507 11.3945 12.6363 11.4511 12.6336 11.5104H13.4136V11.2484H12.6429C12.6424 11.2786 12.6507 11.3049 12.6507 11.3346Z" fill="#337D5A"/>
<path d="M8.9342 14.9782V15.7258H9.19651V14.9644C9.13003 14.9677 9.06767 14.9842 8.99959 14.9842C8.97761 14.9842 8.95619 14.9782 8.9342 14.9782Z" fill="#337D5A"/>
<path d="M5.78143 13.0198L5.18567 13.3439L5.31176 13.5736L5.9053 13.2506C5.86024 13.1753 5.82152 13.0979 5.78143 13.0198Z" fill="#337D5A"/>
<path d="M7.31154 14.552C7.23325 14.5107 7.15496 14.4712 7.08026 14.4261L6.71356 15.0359L6.93851 15.171L7.31154 14.552Z" fill="#337D5A"/>
<path d="M7.46124 13.89L7.66312 14.0043L8.92764 11.8889C8.97926 11.9004 9.02711 11.9202 9.08176 11.9202C9.52609 11.9202 9.88541 11.5604 9.88541 11.1171C9.88541 10.6732 9.52609 10.3135 9.08176 10.3135C8.639 10.3135 8.27893 10.6732 8.27893 11.1171C8.27893 11.3709 8.40393 11.5873 8.58794 11.7356L7.46124 13.89ZM9.08224 10.8874C9.21055 10.8874 9.31296 10.9908 9.31296 11.1171C9.31296 11.244 9.20998 11.3477 9.08224 11.3477C8.95511 11.3477 8.85317 11.244 8.85317 11.1171C8.85317 10.9907 8.95511 10.8874 9.08224 10.8874Z" fill="#337D5A"/>
</svg>

<svg width="18" height="18" fill="none" xmlns="http://www.w3.org/2000/svg"><path d="M16.923 16.107c-.13-.445-2.25-8.38-2.538-9.46-.287-1.08-1.038-1.369-1.884-1.369H9.743v-.997C14.872 3.804 16.24 0 16.24 0H1.42S2.567 4.018 8.05 4.303v.975H5.5c-.846 0-1.596.288-1.884 1.368a2534.49 2534.49 0 0 1-2.538 9.46c-.163.557-.112 1.284 1.021 1.284h.81V18h12.045v-.61h.947c1.135 0 1.186-.727 1.023-1.284ZM9 6.309A5.025 5.025 0 1 1 9 16.36 5.025 5.025 0 1 1 9 6.309Z" fill="#337D5A"/><path d="m6.115 9.123-.516-.368-.153.214.509.36c.047-.072.105-.137.16-.206ZM7.533 7.996l-.281-.568-.236.117.287.577c.077-.041.15-.09.23-.126ZM5.35 11.335c0-.03.008-.057.01-.086h-.64v.262h.648c-.002-.06-.018-.116-.018-.176ZM12.944 9.41l-.125-.228-.658.36c.042.074.087.151.125.229l.659-.36ZM11.418 7.72l-.225-.134-.364.606c.075.045.155.08.23.13l.359-.601ZM9.197 7.705V7.03h-.263v.66c.022 0 .044-.006.066-.006.068 0 .13.016.197.02ZM11.116 15.216l-.35-.706c-.076.043-.152.09-.23.126l.344.697.236-.117ZM12.686 13.791l-.64-.454c-.046.074-.106.139-.158.207l.645.46.153-.213ZM12.65 11.335c0 .06-.014.116-.016.175h.78v-.262h-.771c0 .03.008.057.008.087ZM8.934 14.978v.748h.263v-.762c-.067.004-.13.02-.197.02-.022 0-.044-.006-.066-.006ZM5.781 13.02l-.595.324.126.23.593-.323c-.045-.076-.083-.153-.124-.231ZM7.312 14.552c-.079-.041-.157-.08-.232-.126l-.366.61.225.135.373-.619ZM7.461 13.89l.202.114 1.265-2.115c.051.011.1.031.154.031a.803.803 0 1 0-.803-.803c0 .254.125.47.309.619L7.46 13.89Zm1.621-3.003a.23.23 0 1 1 .002.46.23.23 0 0 1-.002-.46Z" fill="#337D5A"/></svg>
